X:348
T:Bessie's Haggis
S:Gow: Vocal Melodies of Scotland, arr Henderson, part 2, p25
M:4/4
L:1/8
Q:1/4=100 "Slow"
K:C
 c2   (ed)   c2   g2 |(ag)(fe)        d3e| c2 (ed)  c2  g2   | a>bc'g    (e2g2) |
(a2    c'2)  e2   g2 |(ag)(fe)        d3e| c2  e2   g2 ~c'>d'| e'2  c2    e2g2 :|
(c2    g2)   c'2  ba | b>c' (b/c'/d') d3e|(c2  g2)  c'2-c'd' |(c'b)(ag)   c'3d' |
(e'c')(d'b) (c'a)(bg)| aefg           d3e|(cd)(ef) (ga)bg    |~c'>d' e'c (e2g2):|

